images/svg/customer-six.svg

<svg width="72" height="16" viewBox="0 0 72 16" fill="none" xmlns="http://www.w3.org/2000/svg">
<g clip-path="url(#clip0_1_393)">
<path d="M17.6698 3.33359L13.3669 0.391617C13.0002 0.141322 12.5614 0.00683594 12.1114 0.00683594C11.6614 0.00683594 11.2226 0.141322 10.8559 0.391617L9.45509 1.3484L7.93204 2.38668L6.55307 3.33359C6.27225 3.52606 6.04327 3.78 5.88511 4.07435C5.72695 4.3687 5.64416 4.695 5.64361 5.02618V10.9879C5.64381 11.0647 5.62531 11.1406 5.58958 11.2094C5.55385 11.2782 5.50188 11.338 5.4378 11.3842L3.94434 12.3718L5.37477 13.3471L6.38327 12.6792C6.66415 12.4871 6.89319 12.2334 7.05137 11.9392C7.20954 11.6451 7.29229 11.3189 7.29272 10.9879V5.02618C7.29291 4.94711 7.31259 4.8692 7.35015 4.79882C7.38771 4.72845 7.44209 4.66759 7.50883 4.62124L11.8117 1.6805C11.8991 1.6204 12.0039 1.58807 12.1114 1.58807C12.2189 1.58807 12.3238 1.6204 12.4111 1.6805L13.5341 2.44717L14.9633 3.42248L16.7153 4.62001C16.7827 4.6658 16.8377 4.7265 16.8755 4.79698C16.9134 4.86747 16.933 4.94566 16.9327 5.02495V10.9879C16.9328 11.0669 16.9131 11.1449 16.8753 11.2151C16.8374 11.2854 16.7826 11.3459 16.7153 11.3916L12.4111 14.3212C12.3166 14.3837 12.2035 14.4152 12.0887 14.411C11.974 14.4067 11.8637 14.367 11.7744 14.2977L10.955 13.8039L9.51298 14.8027L10.8559 15.615C11.2226 15.8655 11.6614 16.0001 12.1114 16.0001C12.5614 16.0001 13.0003 15.8655 13.3669 15.615L17.6698 12.6743C17.9499 12.4826 18.1786 12.2297 18.3367 11.9365C18.4948 11.6432 18.578 11.3181 18.5792 10.9879V5.02618C18.5791 4.69492 18.4965 4.36849 18.3383 4.07407C18.1801 3.77965 17.9509 3.52577 17.6698 3.33359Z" fill="#131416"/>
<path d="M10.6446 13.6176L12.0262 12.6732C12.3062 12.4814 12.5347 12.2284 12.6928 11.9352C12.8509 11.642 12.9341 11.3169 12.9356 10.9868V5.02503C12.9354 4.94784 12.954 4.87168 12.9899 4.80264C13.0259 4.7336 13.0782 4.67362 13.1427 4.6275L14.6323 3.63984L13.2032 2.66454L12.196 3.3312C11.9152 3.52367 11.6864 3.77763 11.5284 4.07201C11.3705 4.36638 11.288 4.69268 11.2878 5.02379V10.9868C11.2879 11.0658 11.2682 11.1438 11.2303 11.214C11.1925 11.2843 11.1377 11.3448 11.0704 11.3905L6.76753 14.3201C6.68013 14.3802 6.57532 14.4125 6.46781 14.4125C6.36029 14.4125 6.25548 14.3802 6.16809 14.3201L5.04509 13.5534L3.61852 12.5818L1.8665 11.3843C1.80012 11.3392 1.7458 11.2797 1.70801 11.2106C1.67023 11.1415 1.65004 11.0648 1.64911 10.9868V5.02503C1.64867 4.94585 1.66807 4.86773 1.70568 4.79725C1.74329 4.72678 1.79801 4.66601 1.86522 4.62009L6.16809 1.67935C6.26351 1.61596 6.37778 1.58398 6.49375 1.58821C6.60972 1.59244 6.72113 1.63265 6.81126 1.70281L7.60623 2.18552L9.06625 1.19787L7.72844 0.387992C7.36181 0.137523 6.92298 0.00292969 6.47295 0.00292969C6.02293 0.00292969 5.58409 0.137523 5.21747 0.387992L0.909455 3.33244C0.628326 3.52462 0.399117 3.7785 0.240922 4.07292C0.0827272 4.36733 0.000126015 4.69377 0 5.02503V10.9868C0.000231532 11.318 0.0828782 11.6444 0.241064 11.9388C0.399251 12.2332 0.628403 12.4871 0.909455 12.6793L5.21232 15.6201C5.57894 15.8706 6.01778 16.0052 6.46781 16.0052C6.91783 16.0052 7.35667 15.8706 7.72329 15.6201L9.1936 14.6152L10.6433 13.6275L10.6446 13.6176Z" fill="#131416"/>
<path d="M28.5109 1.88037H25.3027V3.70383C25.3028 3.90959 25.2192 4.10726 25.0698 4.25482C24.9204 4.40237 24.7169 4.48816 24.5026 4.49395L23.6484 4.51494V6.94827H25.3027V11.3162C25.3027 14.0767 26.4411 14.9705 31.2007 14.673V12.1668C28.7797 12.4051 28.5932 11.7693 28.5932 10.9952V6.94457H31.2007V4.46185H28.5109V1.88037Z" fill="#131416"/>
<path d="M41.4192 0.220703C40.2614 0.220703 39.626 0.467617 39.626 1.77997C39.626 3.09231 40.2589 3.33923 41.4192 3.33923C42.5602 3.33923 43.1557 3.06021 43.1557 1.77997C43.1557 0.462679 42.5602 0.220703 41.4192 0.220703Z" fill="#131416"/>
<path d="M43.0364 4.46191H39.7871V14.5903H43.0364V4.46191Z" fill="#131416"/>
<path d="M51.3951 4.28265C49.7601 4.28265 48.7259 4.81845 48.2294 5.4345V0.549316H45.0225V14.5901C45.0585 14.5901 45.0932 14.5901 45.1292 14.5826H45.2733C45.6324 14.5824 45.9839 14.4836 46.2863 14.2979C46.5888 14.1122 46.8296 13.8473 46.9803 13.5345V13.5271C47.0064 13.474 47.0462 13.4282 47.0959 13.394C47.1456 13.3598 47.2035 13.3383 47.2642 13.3315C47.325 13.3247 47.3865 13.3328 47.4431 13.3552C47.4996 13.3775 47.5493 13.4133 47.5875 13.4592C48.2023 14.174 49.0591 14.6012 50.2759 14.7172C50.5287 14.7508 50.7836 14.7681 51.0388 14.7691C52.8795 14.7691 54.0501 14.0222 54.7512 12.9419C54.7898 12.8839 54.8284 12.8185 54.8644 12.7641L54.9364 12.6333C54.9892 12.537 55.038 12.4394 55.0844 12.3382L55.1165 12.2641C55.1705 12.1407 55.2181 12.0172 55.2632 11.8938C55.2632 11.8802 55.2722 11.8666 55.276 11.853C55.321 11.7209 55.3622 11.5864 55.3969 11.4493C55.3969 11.432 55.4059 11.4172 55.4098 11.4012C55.4381 11.2864 55.4638 11.1703 55.4857 11.0518C55.4947 11.0049 55.505 10.958 55.514 10.911C55.523 10.8641 55.5243 10.837 55.5307 10.7999C55.5998 10.3718 55.6355 9.93933 55.6375 9.50611C55.6375 6.90364 54.665 4.28265 51.3951 4.28265ZM50.2991 12.2061C48.4982 12.2061 48.2088 11.1147 48.2088 9.50611C48.2088 7.95672 48.4365 6.82463 50.2785 6.82463C52.037 6.82463 52.3264 7.93574 52.3264 9.50611C52.3264 11.0938 52.037 12.2061 50.2991 12.2061Z" fill="#131416"/>
<path d="M61.7616 4.28271C57.9128 4.28271 57.0021 5.7716 57.0021 7.93704H60.1472C60.1472 7.12222 60.519 6.52716 61.844 6.52716C63.2512 6.52716 63.7066 7.14444 63.7066 8.31358L60.9332 8.59136C57.9746 8.89012 56.5879 9.70248 56.5879 11.6506C56.5879 13.7753 58.4917 14.7691 60.9744 14.7691C62.581 14.7691 63.6449 14.321 64.3729 13.4741C64.411 13.4279 64.4608 13.3919 64.5175 13.3693C64.5742 13.3468 64.6359 13.3385 64.6969 13.3454C64.7578 13.3522 64.8159 13.3738 64.8657 13.4082C64.9155 13.4426 64.9553 13.4887 64.9814 13.542C65.1321 13.8548 65.3729 14.1197 65.6753 14.3054C65.9778 14.4911 66.3293 14.5899 66.6884 14.5901H66.9341V8.85063C66.9315 6.22839 66.2639 4.28271 61.7616 4.28271ZM61.633 12.5839C60.4534 12.5839 59.9607 12.1469 59.9607 11.5309C59.9607 11.0543 60.3543 10.6975 61.633 10.5778L63.7027 10.3395C63.6834 11.5914 63.0827 12.5839 61.633 12.5839Z" fill="#131416"/>
<path d="M71.9999 0.549316H68.7725V14.5901H71.9999V0.549316Z" fill="#131416"/>
<path d="M38.6835 4.2666C38.5793 4.2666 38.4828 4.27401 38.3825 4.27771C37.5606 4.23036 36.7458 4.4476 36.0671 4.895C35.7738 5.07638 35.5113 5.29998 35.2888 5.55796C35.2504 5.60377 35.2005 5.63946 35.1438 5.66169C35.0871 5.68392 35.0255 5.69196 34.9646 5.68504C34.9038 5.67813 34.8458 5.6565 34.7961 5.62218C34.7464 5.58786 34.7065 5.54197 34.6804 5.48882C34.5285 5.17558 34.2863 4.91068 33.9824 4.72556C33.6785 4.54044 33.3256 4.44285 32.9656 4.44438H32.7199V4.46784H32.7109V14.5913H35.9384V9.40611C35.9384 8.05549 36.3115 6.76537 38.7324 7.00364V4.30241H38.6887C38.6874 4.28018 38.6861 4.2666 38.6835 4.2666Z" fill="#131416"/>
</g>
<defs>
<clipPath id="clip0_1_393">
<rect width="72" height="16" fill="white"/>
</clipPath>
</defs>
</svg>

<svg width="72" height="16" fill="none" xmlns="http://www.w3.org/2000/svg"><g clip-path="url(#a)" fill="#131416"><path d="M17.67 3.334 13.367.392A2.229 2.229 0 0 0 12.11.007c-.45 0-.888.134-1.255.385l-1.4.956-1.524 1.039-1.379.947c-.28.192-.51.446-.668.74-.158.295-.24.621-.241.952v5.962a.478.478 0 0 1-.206.396l-1.494.988 1.43.975 1.01-.668c.28-.192.51-.446.667-.74.159-.294.241-.62.242-.951V5.026a.485.485 0 0 1 .216-.405l4.303-2.94a.53.53 0 0 1 .6 0l1.122.766 1.43.975 1.751 1.198a.5.5 0 0 1 .16.177c.038.07.058.149.058.228v5.963a.501.501 0 0 1-.217.404l-4.305 2.93a.549.549 0 0 1-.637-.024l-.819-.494-1.442.999 1.343.812c.367.25.805.385 1.255.385.45 0 .89-.134 1.256-.385l4.303-2.94c.28-.192.509-.445.667-.739.158-.293.241-.618.242-.948V5.026c0-.331-.082-.658-.24-.952a2.107 2.107 0 0 0-.67-.74Z"/><path d="m10.645 13.618 1.381-.945a2.11 2.11 0 0 0 .667-.738c.158-.293.241-.618.243-.948V5.025a.479.479 0 0 1 .207-.397l1.49-.988-1.43-.975-1.007.666c-.28.193-.51.447-.668.741-.158.294-.24.62-.24.952v5.963a.5.5 0 0 1-.217.404l-4.303 2.93a.53.53 0 0 1-.6 0l-1.123-.768-1.426-.971-1.753-1.198a.501.501 0 0 1-.158-.173.478.478 0 0 1-.059-.224V5.025a.5.5 0 0 1 .216-.405l4.303-2.94a.553.553 0 0 1 .643.023l.795.483 1.46-.988-1.338-.81A2.228 2.228 0 0 0 6.473.003c-.45 0-.889.135-1.256.385L.91 3.332c-.28.193-.51.447-.668.74-.158.295-.24.622-.241.953v5.962c0 .331.083.657.241.952.158.294.387.548.668.74l4.303 2.941c.367.25.806.385 1.256.385.45 0 .889-.134 1.255-.385l1.47-1.005 1.45-.988.002-.01ZM28.51 1.88h-3.207v1.824a.774.774 0 0 1-.233.55.84.84 0 0 1-.567.24l-.855.02v2.434h1.655v4.368c0 2.76 1.138 3.654 5.898 3.357v-2.506c-2.421.238-2.608-.398-2.608-1.172v-4.05h2.608V4.462h-2.69V1.88ZM41.42.22c-1.159 0-1.794.248-1.794 1.56s.633 1.56 1.793 1.56c1.141 0 1.737-.28 1.737-1.56 0-1.317-.596-1.56-1.737-1.56ZM43.036 4.462h-3.249V14.59h3.25V4.462ZM51.395 4.283c-1.635 0-2.67.535-3.166 1.151V.55h-3.206V14.59c.035 0 .07 0 .106-.007h.144c.36 0 .71-.1 1.013-.285a1.83 1.83 0 0 0 .694-.764v-.007a.349.349 0 0 1 .116-.133.37.37 0 0 1 .492.065c.614.715 1.471 1.142 2.688 1.258.253.034.508.051.763.052 1.84 0 3.011-.747 3.712-1.827.039-.058.077-.123.113-.178l.072-.13a4.59 4.59 0 0 0 .148-.296l.032-.074c.054-.123.102-.247.147-.37 0-.014.01-.027.013-.041a5.24 5.24 0 0 0 .12-.404c0-.017.01-.032.014-.048.028-.115.054-.23.076-.35l.028-.14c.009-.047.01-.074.017-.111.069-.428.105-.86.107-1.294 0-2.602-.973-5.223-4.243-5.223ZM50.3 12.206c-1.8 0-2.09-1.091-2.09-2.7 0-1.55.227-2.681 2.07-2.681 1.758 0 2.047 1.11 2.047 2.681 0 1.588-.289 2.7-2.027 2.7ZM61.762 4.283c-3.85 0-4.76 1.489-4.76 3.654h3.145c0-.815.372-1.41 1.697-1.41 1.407 0 1.863.617 1.863 1.787l-2.774.277c-2.958.3-4.345 1.111-4.345 3.06 0 2.124 1.904 3.118 4.386 3.118 1.607 0 2.67-.448 3.399-1.295a.373.373 0 0 1 .493-.066c.05.035.09.08.115.134.151.313.392.578.694.763a1.94 1.94 0 0 0 1.013.285h.246V8.85c-.002-2.622-.67-4.567-5.172-4.567Zm-.129 8.3c-1.18 0-1.672-.436-1.672-1.052 0-.477.393-.834 1.672-.953l2.07-.239c-.02 1.252-.62 2.245-2.07 2.245ZM72 .55h-3.228v14.04H72V.55ZM38.684 4.267c-.105 0-.201.007-.301.01a3.814 3.814 0 0 0-2.316.618 3.363 3.363 0 0 0-.778.663.375.375 0 0 1-.493.064.35.35 0 0 1-.116-.133 1.832 1.832 0 0 0-.698-.763 1.94 1.94 0 0 0-1.016-.282h-.246v.024h-.01V14.59h3.228V9.406c0-1.35.373-2.64 2.794-2.402V4.302h-.043c-.002-.022-.003-.035-.005-.035Z"/></g><defs><clipPath id="a"><path fill="#fff" d="M0 0h72v16H0z"/></clipPath></defs></svg>
